X:1
T:Title
%%score ( 1 2 ) ( 3 4 )
L:1/8
Q:1/4=105
M:4/4
K:F
V:1 treble nm="Grand Piano, Soprano"
V:2 treble 
V:3 bass nm="Choir Pad, Jesus Wants Us to Help"
V:4 bass 
V:1
 C2 [CA]2 [CA]2 [CGc]2 | [B,G]>[CA] [A,CF]2 [A,CF]2 [B,C]2- | [B,C][B,C]CD EF [CG]2 | %3
w: By~Ira~Bishop~Wilson * * *|||
 [CF]2 [DGB]6 | D2 [DB]2 [DB]2 [DAd]2 | [CA]>[DB] [B,DG]2 [B,DB]2 [CD]2- | [CD][CA] A2 GF D2 | %7
w: ||||
 G2 [_B,F]6 | z2 [CAc]2 [CAc]2 [CAc][DAd]- | [DAd][CAc] [CFA]2 [FA]2 A2- | %10
w: |||
 [DA]2 [CFA]2 [CFA]>A [CEB]2 | [CFc]2 [=B,FA]4 [CEG]2- | [CEG]2 [CAc]2 [CAc]2 [CAc][DAd]- | %13
w: |||
 [DAd][CAc] [CFA]2 [^CGA]2 B2 | A2 [=B,G]2 [B,D]>A [_B,CG]2- | [B,CG][A,CF] [A,CF]6- | %16
w: |||
 [A,CF]2 z2 z4 |] %17
w: |
V:2
 x8 | x8 | z2 A,2 z4 | x8 | x8 | x8 | z2 =B,6- | B,2 z2 z4 | x8 | z4 z2 E2 | x8 | x8 | x8 | %13
 z4 z2 [=C^F]2- | [CF]2 z2 z4 | x8 | x8 |] %17
V:3
 z2 F,,2 C,2 E,2 | C,2 F,,2 C,2 E,2 | C,2 F,,2 C,2 A,,2 | _A,,2 G,,2 D,2 G,2 | z2 G,,2 D,2 ^F,2 | %5
 D,2 G,,2 D,2 ^F,2 | D,2 z2 D,2 G,2 | F,2 [C,E,]2 G,,2 [C,E,]2 | C,,2 [F,,F,]2 [C,,C,]2 [F,,F,]2 | %9
 [C,,C,]2 [F,,F,]2 [C,,C,]2 [F,,F,]2 | [C,,C,]2 [F,,F,]2 [F,,F,]2 [G,,G,]2 | %11
 [A,,A,]2 [D,,D,]2 G,,2 C,B,, | A,,G,, [F,,F,]2 [C,,C,]2 [F,,F,]2 | %13
 [C,,C,]2 [F,,F,]2 [E,,E,]2 [D,,D,]2 | [D,,D,]2 [G,,D,]2 [G,,F,]2 [C,E,]2- | %15
 [C,E,][F,,F,] [F,,F,]2 C,2 F,,2- | F,,2 z2 z4 |] %17
V:4
 x8 | x8 | x8 | x8 | x8 | x8 | z2 G,,6- | G,,2 z2 z4 | x8 | x8 | x8 | x8 | x8 | x8 | x8 | x8 | %16
 x8 |] %17

